src/images_karasa_jaga_svg/sd/cmd/transition-static.svg

<svg height="32" viewBox="0 0 32 32" width="32" xmlns="http://www.w3.org/2000/svg" xmlns:xlink="http://www.w3.org/1999/xlink"><radialGradient id="a" cx="100.88867" cy="155.99673" gradientTransform="matrix(4.3885832 0 0 3.8888885 -340.15832 -521.43169)" gradientUnits="userSpaceOnUse" r="40"><stop offset="0" stop-color="#fff"/><stop offset=".11366145" stop-color="#bdbebf"/><stop offset=".20296688" stop-color="#ececec"/><stop offset=".2363" stop-color="#fafafa"/><stop offset=".38818121" stop-color="#fff"/><stop offset=".5313" stop-color="#fafafa"/><stop offset=".8449" stop-color="#ebecec"/><stop offset="1" stop-color="#e1e2e3"/></radialGradient><filter id="b" color-interpolation-filters="sRGB" height="1.065877" width="1.055085" x="-.027543" y="-.032939"><feGaussianBlur stdDeviation="1.3760599"/></filter><linearGradient id="c" gradientUnits="userSpaceOnUse" x1="67.903954" x2="67.903954" y1="31.783545" y2="-32.216457"><stop offset="0" stop-color="#e9eaea"/><stop offset=".5" stop-color="#fff"/><stop offset="1" stop-color="#fefefe"/></linearGradient><radialGradient id="d" cx="15.803572" cy="27.911764" gradientTransform="matrix(1.2444444 .00000003 -.00000002 .75555556 -3.666666 3.911111)" gradientUnits="userSpaceOnUse" r="11.25"><stop offset="0" stop-color="#ffea00"/><stop offset="1" stop-color="#ffa000"/></radialGradient><linearGradient id="e" gradientUnits="userSpaceOnUse" x1="8" x2="7.953124" y1="4" y2="16.986109"><stop offset="0" stop-color="#fff"/><stop offset="1" stop-color="#fff" stop-opacity="0"/></linearGradient><filter id="f" height="1.294962" width="1.106002" x="-.053001" y="-.147481"><feGaussianBlur stdDeviation="1.4133574"/></filter><filter id="g" color-interpolation-filters="sRGB" height="1.157082" width="1.097082" x="-.048541" y="-.078541"><feGaussianBlur stdDeviation="1.5708204"/></filter><radialGradient id="h" cx="67.903953" cy="-.216458" gradientTransform="matrix(1 0 0 .65183454 0 -.075363)" gradientUnits="userSpaceOnUse" r="42.602785"><stop offset="0" stop-color="#fff"/><stop offset=".75112468" stop-color="#e7e7e7" stop-opacity=".498039"/><stop offset="1" stop-color="#fff" stop-opacity="0"/></radialGradient><g transform="matrix(.25 0 0 .25 -.975989 16.054114)"><ellipse cx="67.903954" cy="-.216456" fill="url(#h)" filter="url(#g)" rx="38.832817" ry="24"/><path d="m91.808594-48.839841h-.002l-76.810547.240235c-4.577647.0022-8.2824795 3.747105-8.2832034 8.318359l-.0129652 81.874107c-.0007241 4.572585 3.7145276 8.287109 8.2871096 8.287109.0013.000002.0026.000002.0039 0l105.902392-.263671c4.57258 0 8.28711-3.714526 8.28711-8.28711l-.002-13.640625.013-47.90536.002-20.328125c0-4.572582-3.70762-8.318359-8.28711-8.318359z" fill="#141414" filter="url(#b)"/><path d="m14.625-48c-3.66801.012514-6.625 2.956969-6.625 6.625l-.096045 33.158544.08308 49.496816c.00616 3.668025 2.95698 6.634065 6.625 6.625l49.29192-.121816 57.364325-.141515c3.66802-.009 6.62443-2.95697 6.625-6.625l.013-82.65536c.00058-3.668031-2.95697-6.625-6.625-6.625h-9.375-8-12.096075z" fill="#fff"/><path d="m115.69727-44.224609-15.58008.0078-85.857424.255859c-1.278069.0038-2.220507.943724-2.220704 2.210938l-.01296 83.40536c-.000197 1.267223.944877 2.214022 2.203126 2.210938l107.406242-.26366c1.27618-.0031 2.21856-.943712 2.21875-2.210938l.013-83.40536c.0002-1.267225-.94371-2.210937-2.21094-2.210937z" fill="url(#a)"/><rect fill="#8c8c8c" height="72" rx="3.999999" ry="4.000001" width="104" x="15.903955" y="-36.216457"/><rect fill="url(#c)" height="68" rx="3.999999" ry="4.000001" width="100" x="17.903955" y="-34.216457"/><path d="m3.6523438 8c-.088077.1490554-.1523438.3136332-.1523438.5v.5h1.5v-1zm2.3476562 0v1h4v-1zm5 0v1h4v-1zm5 0v1h4v-1zm5 0v1h4v-1zm5 0v1h2.5v-.5c0-.1863668-.064267-.3509446-.152344-.5zm-22.5 3v1h2.5v-1zm3.5 0v1h4v-1zm5 0v1h4v-1zm5 0v1h4v-1zm5 0v1h4v-1zm5 0v1h1.5v-1zm-23 2v1h3v-1zm4 0v1h4v-1zm5 0v1h4v-1zm5 0v1h4v-1zm5 0v1h4v-1zm5 0v1h.5v-1zm-24.5 2v1h1.5v-1zm2.5 0v1h4v-1zm5 0v1h4v-1zm5 0v1h4v-1zm5 0v1h4v-1zm5 0v1h2.5v-1zm-22.5 2v1h2.5v-1zm3.5 0v1h4v-1zm5 0v1h4v-1zm5 0v1h4v-1zm5 0v1h4v-1zm5 0v1h1.5v-1zm-23.5 2v1h4.5v-1zm5.5 0v1h4v-1zm5 0v1h4v-1zm5 0v1h4v-1zm5 0v1h4v-1zm-20.5 3v1h1.5v-1zm2.5 0v1h4v-1zm5 0v1h4v-1zm5 0v1h4v-1zm5 0v1h4v-1zm5 0v1h2.5v-1z" fill="url(#d)" transform="matrix(4 0 0 4 3.903955 -64.216456)"/><path d="m3.6523438 8c-.0542203.0942891-.0932294.1989573-.1152344.3105469l.0332031.6894531h1.4296875v-1zm2.3476562 0v1h4v-1zm5 0v1h4v-1zm5 0v1h4v-1zm5 0v1h4v-1zm5 0v1h2.5v-.5c0-.1343717-.028519-.2620648-.076172-.3789062-.01881-.0451282-.050941-.0814324-.078125-.1210938zm-22.3339844 3 .046875 1h2.2871094v-1zm3.3339844 0v1h4v-1zm5 0v1h4v-1zm5 0v1h4v-1zm5 0v1h4v-1zm5 0v1h1.5v-1zm-23 2v1h3v-1zm4 0v1h4v-1zm5 0v1h4v-1zm5 0v1h4v-1zm5 0v1h4v-1zm5 0v1h.5v-1zm-24.1425781 2 .046875 1h1.0957031v-1zm2.1425781 0v1h4v-1zm5 0v1h4v-1zm5 0v1h4v-1zm5 0v1h4v-1zm5 0v1h2.5v-1zm-22.046875 2 .046875 1h2v-1zm3.046875 0v1h4v-1zm5 0v1h4v-1zm5 0v1h4v-1zm5 0v1h1.917969c.619397-.129544 1.384671-.302479 2.082031-.455078v-.544922zm5 0v.328125c.53136-.118259.922843-.196974 1.5-.328125zm-16 2c.685701.105051 1.358811.202693 2 .257812v-.257812zm3 0v.316406c1.132569.037538 2.376798-.028086 4-.24414v-.072266z" fill="url(#e)" filter="url(#f)" transform="matrix(4 0 0 4 3.903955 -64.216456)"/></g></svg>

<?xml version="1.0" encoding="UTF-8" standalone="no"?>
<!-- Created with Inkscape (http://www.inkscape.org/) -->

<svg
   xmlns:dc="http://purl.org/dc/elements/1.1/"
   xmlns:cc="http://creativecommons.org/ns#"
   xmlns:rdf="http://www.w3.org/1999/02/22-rdf-syntax-ns#"
   xmlns:svg="http://www.w3.org/2000/svg"
   xmlns="http://www.w3.org/2000/svg"
   xmlns:xlink="http://www.w3.org/1999/xlink"
   xmlns:sodipodi="http://sodipodi.sourceforge.net/DTD/sodipodi-0.dtd"
   xmlns:inkscape="http://www.inkscape.org/namespaces/inkscape"
   version="1.1"
   id="svg2"
   width="32"
   height="32"
   viewBox="0 0 32 32"
   sodipodi:docname="transition-static.svg"
   inkscape:version="0.92.3 (unknown)"
   inkscape:export-filename="/home/rizmut/Dokumen/Rizmut/Github/libreoffice-style-karasa-jaga/build/images_karasa_jaga/sd/cmd/transition-static.png"
   inkscape:export-xdpi="96"
   inkscape:export-ydpi="96">
  <metadata
     id="metadata8">
    <rdf:RDF>
      <cc:Work
         rdf:about="">
        <dc:format>image/svg+xml</dc:format>
        <dc:type
           rdf:resource="http://purl.org/dc/dcmitype/StillImage" />
        <dc:title></dc:title>
      </cc:Work>
    </rdf:RDF>
  </metadata>
  <defs
     id="defs6">
    <linearGradient
       inkscape:collect="always"
       id="linearGradient1205">
      <stop
         style="stop-color:#ffffff;stop-opacity:1"
         offset="0"
         id="stop1201" />
      <stop
         id="stop1209"
         offset="0.75112468"
         style="stop-color:#e7e7e7;stop-opacity:0.49803922" />
      <stop
         style="stop-color:#ffffff;stop-opacity:0"
         offset="1"
         id="stop1203" />
    </linearGradient>
    <linearGradient
       inkscape:collect="always"
       id="linearGradient2334">
      <stop
         style="stop-color:#e9eaea;stop-opacity:1;"
         offset="0"
         id="stop2330" />
      <stop
         id="stop2338"
         offset="0.5"
         style="stop-color:#ffffff;stop-opacity:1" />
      <stop
         style="stop-color:#fefefe;stop-opacity:1"
         offset="1"
         id="stop2332" />
    </linearGradient>
    <linearGradient
       y2="0"
       x2="28"
       y1="57.5"
       x1="28"
       gradientUnits="userSpaceOnUse"
       id="linearGradient15967">
      <stop
         id="stop15969"
         style="stop-color:white;stop-opacity:1;"
         offset="0" />
      <stop
         id="stop15971"
         style="stop-color:white;stop-opacity:0;"
         offset="1" />
    </linearGradient>
    <linearGradient
       y2="0"
       x2="28"
       y1="57.5"
       x1="28"
       gradientUnits="userSpaceOnUse"
       id="linearGradient3287">
      <stop
         id="stop3289"
         style="stop-color:#FFEA00"
         offset="0" />
      <stop
         id="stop3291"
         style="stop-color:#ffa000;stop-opacity:1;"
         offset="1" />
    </linearGradient>
    <radialGradient
       inkscape:collect="always"
       xlink:href="#XMLID_8_"
       id="radialGradient3726"
       gradientUnits="userSpaceOnUse"
       gradientTransform="matrix(4.3885832,0,0,3.8888885,-340.15832,-521.43169)"
       cx="100.88867"
       cy="155.99673"
       fx="100.88867"
       fy="155.99673"
       r="40" />
    <radialGradient
       id="XMLID_8_"
       cx="102"
       cy="112.3047"
       r="139.55859"
       gradientUnits="userSpaceOnUse">
      <stop
         offset="0"
         style="stop-color:#ffffff;stop-opacity:1;"
         id="stop37" />
      <stop
         offset="0.11366145"
         style="stop-color:#bdbebf;stop-opacity:1;"
         id="stop41" />
      <stop
         offset="0.20296688"
         style="stop-color:#ECECEC"
         id="stop47" />
      <stop
         offset="0.2363"
         style="stop-color:#FAFAFA"
         id="stop49" />
      <stop
         offset="0.38818121"
         style="stop-color:#FFFFFF"
         id="stop51" />
      <stop
         offset="0.5313"
         style="stop-color:#FAFAFA"
         id="stop53" />
      <stop
         offset="0.8449"
         style="stop-color:#EBECEC"
         id="stop55" />
      <stop
         offset="1"
         style="stop-color:#E1E2E3"
         id="stop57" />
    </radialGradient>
    <clipPath
       clipPathUnits="userSpaceOnUse"
       id="clipPath3826">
      <path
         inkscape:connector-curvature="0"
         style="fill:none;fill-opacity:0.75;fill-rule:evenodd;stroke:#000000;stroke-width:1px;stroke-linecap:butt;stroke-linejoin:miter;stroke-opacity:1"
         d="M 39.881057,36 40,80 H 96 V 36 Z"
         id="path3828"
         sodipodi:nodetypes="ccccc" />
    </clipPath>
    <filter
       inkscape:collect="always"
       style="color-interpolation-filters:sRGB"
       id="filter939"
       x="-0.027542715"
       width="1.0550854"
       y="-0.032938699"
       height="1.0658774">
      <feGaussianBlur
         inkscape:collect="always"
         stdDeviation="1.3760599"
         id="feGaussianBlur941" />
    </filter>
    <linearGradient
       inkscape:collect="always"
       xlink:href="#linearGradient2334"
       id="linearGradient2336"
       x1="67.903954"
       y1="31.783545"
       x2="67.903954"
       y2="-32.216457"
       gradientUnits="userSpaceOnUse" />
    <radialGradient
       inkscape:collect="always"
       xlink:href="#linearGradient3287"
       id="radialGradient901"
       cx="-125.21604"
       cy="-19.496462"
       fx="-125.21604"
       fy="-19.496462"
       r="34.560001"
       gradientTransform="matrix(1,0,0,1.7152778,0,13.945385)"
       gradientUnits="userSpaceOnUse" />
    <radialGradient
       inkscape:collect="always"
       xlink:href="#linearGradient3287"
       id="radialGradient1049"
       cx="15.803572"
       cy="27.911764"
       fx="15.803572"
       fy="27.911764"
       r="11.25"
       gradientTransform="matrix(1.2444444,2.7636806e-8,-1.677949e-8,0.75555556,-3.6666662,3.9111107)"
       gradientUnits="userSpaceOnUse" />
    <linearGradient
       inkscape:collect="always"
       xlink:href="#linearGradient15967"
       id="linearGradient3412"
       gradientUnits="userSpaceOnUse"
       x1="56.278961"
       y1="54.089115"
       x2="56.091454"
       y2="106.03355"
       gradientTransform="matrix(0.25,0,0,0.25,-6.06974,-9.5222785)" />
    <filter
       inkscape:collect="always"
       id="filter3176"
       x="-0.053000905"
       width="1.1060019"
       y="-0.14748077"
       height="1.2949615">
      <feGaussianBlur
         inkscape:collect="always"
         stdDeviation="1.4133574"
         id="feGaussianBlur3178" />
    </filter>
    <filter
       inkscape:collect="always"
       style="color-interpolation-filters:sRGB"
       id="filter1197"
       x="-0.048541019"
       width="1.097082"
       y="-0.078541021"
       height="1.157082">
      <feGaussianBlur
         inkscape:collect="always"
         stdDeviation="1.5708204"
         id="feGaussianBlur1199" />
    </filter>
    <radialGradient
       inkscape:collect="always"
       xlink:href="#linearGradient1205"
       id="radialGradient1207"
       cx="67.903953"
       cy="-0.21645778"
       fx="67.903953"
       fy="-0.21645778"
       r="42.602785"
       gradientTransform="matrix(1,0,0,0.65183454,0,-0.07536312)"
       gradientUnits="userSpaceOnUse" />
    <radialGradient
       inkscape:collect="always"
       xlink:href="#linearGradient1205"
       id="radialGradient1242"
       gradientUnits="userSpaceOnUse"
       gradientTransform="matrix(1,0,0,0.65183454,0,-0.07536312)"
       cx="67.903953"
       cy="-0.21645778"
       fx="67.903953"
       fy="-0.21645778"
       r="42.602785" />
  </defs>
  <sodipodi:namedview
     pagecolor="#ffffff"
     bordercolor="#666666"
     borderopacity="1"
     objecttolerance="10"
     gridtolerance="10"
     guidetolerance="10"
     inkscape:pageopacity="0"
     inkscape:pageshadow="2"
     inkscape:window-width="1366"
     inkscape:window-height="706"
     id="namedview4"
     showgrid="true"
     inkscape:snap-page="true"
     inkscape:snap-global="true"
     inkscape:zoom="22.627417"
     inkscape:cx="16.245724"
     inkscape:cy="15.562959"
     inkscape:window-x="0"
     inkscape:window-y="0"
     inkscape:window-maximized="1"
     inkscape:current-layer="g2568"
     inkscape:snap-smooth-nodes="true"
     inkscape:snap-grids="true">
    <inkscape:grid
       type="xygrid"
       id="grid817"
       spacingx="0.5"
       spacingy="0.5"
       empspacing="2" />
  </sodipodi:namedview>
  <g
     id="g915"
     transform="matrix(0.25,0,0,0.25,-0.97598871,16.054114)">
    <g
       id="g2568">
      <ellipse
         ry="24"
         rx="38.832817"
         cy="-0.216456"
         cx="67.903954"
         id="ellipse1211"
         style="opacity:1;fill:url(#radialGradient1207);fill-opacity:1;stroke:none;stroke-width:4;stroke-linecap:square;stroke-linejoin:round;stroke-miterlimit:4;stroke-dasharray:none;stroke-dashoffset:0;stroke-opacity:1;filter:url(#filter1197)" />
      <path
         sodipodi:nodetypes="cccssccccccccc"
         inkscape:connector-curvature="0"
         id="rect3077"
         d="m 91.808594,-48.839841 h -0.002 l -76.810547,0.240235 c -4.577647,0.0022 -8.2824795,3.747105 -8.2832034,8.318359 L 6.6998784,41.59286 c -7.241e-4,4.572585 3.7145276,8.287109 8.2871096,8.287109 0.0013,2e-6 0.0026,2e-6 0.0039,0 L 120.89328,49.616298 c 4.57258,0 8.28711,-3.714526 8.28711,-8.28711 l -0.002,-13.640625 0.013,-47.90536 0.002,-20.328125 c 0,-4.572582 -3.70762,-8.318359 -8.28711,-8.318359 z"
         style="fill:#141414;fill-opacity:1;stroke:none;stroke-width:0.69999999;stroke-linecap:round;stroke-linejoin:round;stroke-miterlimit:4;stroke-dasharray:none;stroke-dashoffset:1.08780003;stroke-opacity:1;filter:url(#filter939)" />
      <path
         sodipodi:nodetypes="sscsscsssscccs"
         inkscape:connector-curvature="0"
         style="fill:#ffffff;fill-opacity:1;stroke:none;stroke-width:0.69999999;stroke-linecap:round;stroke-linejoin:round;stroke-miterlimit:4;stroke-dasharray:none;stroke-dashoffset:1.08780003;stroke-opacity:1"
         d="M 14.625,-48 C 10.95699,-47.987486 8,-45.043031 8,-41.375 L 7.903955,-8.216456 7.987035,41.28036 c 0.00616,3.668025 2.95698,6.634065 6.625,6.625 l 49.29192,-0.121816 57.364325,-0.141515 c 3.66802,-0.009 6.62443,-2.95697 6.625,-6.625 l 0.013,-82.65536 c 5.8e-4,-3.668031 -2.95697,-6.625 -6.625,-6.625 h -9.375 -8 -12.096075 z"
         id="rect2484" />
      <path
         sodipodi:nodetypes="cccssccsssc"
         inkscape:connector-curvature="0"
         id="rect3135"
         d="m 115.69727,-44.224609 -15.58008,0.0078 -85.857424,0.255859 c -1.278069,0.0038 -2.220507,0.943724 -2.220704,2.210938 l -0.01296,83.40536 c -1.97e-4,1.267223 0.944877,2.214022 2.203126,2.210938 L 121.63547,43.602626 c 1.27618,-0.0031 2.21856,-0.943712 2.21875,-2.210938 l 0.013,-83.40536 c 2e-4,-1.267225 -0.94371,-2.210937 -2.21094,-2.210937 z"
         style="fill:url(#radialGradient3726);fill-opacity:1;stroke:none;stroke-width:0.69999999;stroke-linecap:round;stroke-linejoin:round;stroke-miterlimit:4;stroke-dasharray:none;stroke-dashoffset:1.08780003;stroke-opacity:1" />
      <rect
         rx="3.9999988"
         ry="4.0000014"
         y="-36.216457"
         x="15.903955"
         height="72"
         width="104"
         id="rect2326"
         style="opacity:1;fill:#8c8c8c;fill-opacity:1;stroke:none;stroke-width:4;stroke-linecap:square;stroke-linejoin:round;stroke-miterlimit:4;stroke-dasharray:none;stroke-dashoffset:0;stroke-opacity:1" />
      <rect
         style="opacity:1;fill:url(#linearGradient2336);fill-opacity:1;stroke:none;stroke-width:4;stroke-linecap:square;stroke-linejoin:round;stroke-miterlimit:4;stroke-dasharray:none;stroke-dashoffset:0;stroke-opacity:1"
         id="rect2328"
         width="100"
         height="68"
         x="17.903955"
         y="-34.216457"
         ry="4.0000014"
         rx="3.9999988" />
      <path
         style="opacity:1;fill:url(#radialGradient1049);fill-opacity:1;stroke:none;stroke-width:1;stroke-linecap:square;stroke-linejoin:round;stroke-miterlimit:4;stroke-dasharray:none;stroke-dashoffset:0;stroke-opacity:1"
         d="M 3.6523438,8 C 3.5642668,8.1490554 3.5,8.3136332 3.5,8.5 V 9 H 5 V 8 Z M 6,8 v 1 h 4 V 8 Z m 5,0 v 1 h 4 V 8 Z m 5,0 v 1 h 4 V 8 Z m 5,0 v 1 h 4 V 8 Z m 5,0 v 1 h 2.5 V 8.5 C 28.5,8.3136332 28.435733,8.1490554 28.347656,8 Z M 3.5,11 v 1 H 6 V 11 Z M 7,11 v 1 h 4 v -1 z m 5,0 v 1 h 4 v -1 z m 5,0 v 1 h 4 v -1 z m 5,0 v 1 h 4 v -1 z m 5,0 v 1 h 1.5 V 11 Z M 4,13 v 1 h 3 v -1 z m 4,0 v 1 h 4 v -1 z m 5,0 v 1 h 4 v -1 z m 5,0 v 1 h 4 v -1 z m 5,0 v 1 h 4 v -1 z m 5,0 v 1 h 0.5 V 13 Z M 3.5,15 v 1 H 5 V 15 Z M 6,15 v 1 h 4 v -1 z m 5,0 v 1 h 4 v -1 z m 5,0 v 1 h 4 v -1 z m 5,0 v 1 h 4 v -1 z m 5,0 v 1 h 2.5 V 15 Z M 3.5,17 v 1 H 6 V 17 Z M 7,17 v 1 h 4 v -1 z m 5,0 v 1 h 4 v -1 z m 5,0 v 1 h 4 v -1 z m 5,0 v 1 h 4 v -1 z m 5,0 v 1 h 1.5 V 17 Z M 3.5,19 v 1 H 8 V 19 Z M 9,19 v 1 h 4 v -1 z m 5,0 v 1 h 4 v -1 z m 5,0 v 1 h 4 v -1 z m 5,0 v 1 h 4 V 19 Z M 3.5,22 v 1 H 5 V 22 Z M 6,22 v 1 h 4 v -1 z m 5,0 v 1 h 4 v -1 z m 5,0 v 1 h 4 v -1 z m 5,0 v 1 h 4 v -1 z m 5,0 v 1 h 2.5 v -1 z"
         transform="matrix(4,0,0,4,3.9039548,-64.216456)"
         id="rect1027"
         inkscape:connector-curvature="0"
         sodipodi:nodetypes="cscccccccccccccccccccccccccccsccccccccccccccccccccccccccccccccccccccccccccccccccccccccccccccccccccccccccccccccccccccccccccccccccccccccccccccccccccccccccccccccccccccccccccccccccccccccccccccccccccccccccccccccc" />
      <path
         style="fill:url(#linearGradient3412);fill-opacity:1;stroke:none;stroke-width:0.175;stroke-linecap:round;stroke-linejoin:round;stroke-miterlimit:4;stroke-dasharray:none;stroke-dashoffset:1.08780003;stroke-opacity:1;filter:url(#filter3176)"
         clip-path="none"
         d="M 3.6523438 8 C 3.5981235 8.0942891 3.5591144 8.1989573 3.5371094 8.3105469 L 3.5703125 9 L 5 9 L 5 8 L 3.6523438 8 z M 6 8 L 6 9 L 10 9 L 10 8 L 6 8 z M 11 8 L 11 9 L 15 9 L 15 8 L 11 8 z M 16 8 L 16 9 L 20 9 L 20 8 L 16 8 z M 21 8 L 21 9 L 25 9 L 25 8 L 21 8 z M 26 8 L 26 9 L 28.5 9 L 28.5 8.5 C 28.5 8.3656283 28.471481 8.2379352 28.423828 8.1210938 C 28.405018 8.0759656 28.372887 8.0396614 28.345703 8 L 26 8 z M 3.6660156 11 L 3.7128906 12 L 6 12 L 6 11 L 3.6660156 11 z M 7 11 L 7 12 L 11 12 L 11 11 L 7 11 z M 12 11 L 12 12 L 16 12 L 16 11 L 12 11 z M 17 11 L 17 12 L 21 12 L 21 11 L 17 11 z M 22 11 L 22 12 L 26 12 L 26 11 L 22 11 z M 27 11 L 27 12 L 28.5 12 L 28.5 11 L 27 11 z M 4 13 L 4 14 L 7 14 L 7 13 L 4 13 z M 8 13 L 8 14 L 12 14 L 12 13 L 8 13 z M 13 13 L 13 14 L 17 14 L 17 13 L 13 13 z M 18 13 L 18 14 L 22 14 L 22 13 L 18 13 z M 23 13 L 23 14 L 27 14 L 27 13 L 23 13 z M 28 13 L 28 14 L 28.5 14 L 28.5 13 L 28 13 z M 3.8574219 15 L 3.9042969 16 L 5 16 L 5 15 L 3.8574219 15 z M 6 15 L 6 16 L 10 16 L 10 15 L 6 15 z M 11 15 L 11 16 L 15 16 L 15 15 L 11 15 z M 16 15 L 16 16 L 20 16 L 20 15 L 16 15 z M 21 15 L 21 16 L 25 16 L 25 15 L 21 15 z M 26 15 L 26 16 L 28.5 16 L 28.5 15 L 26 15 z M 3.953125 17 L 4 18 L 6 18 L 6 17 L 3.953125 17 z M 7 17 L 7 18 L 11 18 L 11 17 L 7 17 z M 12 17 L 12 18 L 16 18 L 16 17 L 12 17 z M 17 17 L 17 18 L 21 18 L 21 17 L 17 17 z M 22 17 L 22 18 L 23.917969 18 C 24.537366 17.870456 25.30264 17.697521 26 17.544922 L 26 17 L 22 17 z M 27 17 L 27 17.328125 C 27.53136 17.209866 27.922843 17.131151 28.5 17 L 27 17 z M 11 19 C 11.685701 19.105051 12.358811 19.202693 13 19.257812 L 13 19 L 11 19 z M 14 19 L 14 19.316406 C 15.132569 19.353944 16.376798 19.28832 18 19.072266 L 18 19 L 14 19 z "
         transform="matrix(4,0,0,4,3.9039548,-64.216456)"
         id="path3180" />
    </g>
  </g>
</svg>
